X:235
T:Quick Step 15th Reg’t. RH.235
T:15th Reg’t Quickstep. RH235
R:quickstep
S:Rev.R.Harrison’s MS,c1815,Cumbria
O:England
A:Temple Sowerby,Cumbria
Z:vmp.Simon Wilson. Review PJH, 2008.
M:6/8
L:1/8
Q:3/8=110
K:D
DFA dfe|dcd A2F|GBE FAd|edc d3:|\
|:a>gf geA|g>fe fdA|!
d2e fga|agf e2A|\
dce d2e|fga A2A|Bcd Bgf|edc d3:|

